X: 1
T: The Whistling Postman
R: reel
M: 4/4
L: 1/8
K: Dmaj
ag|:fd (3ddd edge|dBAF E2 FE|(3DED FD ADFD|ABdf g2 ag|
|fd (3ddd edge|dBAF EGFE|(3DED FA defd|1 edBc d2 ag:|2 edBc d2 Ad||
|:fedc dfaf|bfaf gfef|dfaf g2 bg|afdf (3efe de|
|1 f2 dc dfaf|bfaf gfeg|fdAG FAdf|edBc d2 Ad:|
|2 a2 ^gb afdf|gefd edBc|dBAG FAdf|edBc d2 |


Tune 586	Setting 28183

